Costumes/C-glow.svg

<?xml version="1.0" encoding="UTF-8" standalone="no"?>
<svg
   version="1.1"
   width="54.733536"
   height="71.529999"
   id="svg8"
   sodipodi:docname="C-glow.svg"
   xmlns:inkscape="http://www.inkscape.org/namespaces/inkscape"
   xmlns:sodipodi="http://sodipodi.sourceforge.net/DTD/sodipodi-0.dtd"
   xmlns="http://www.w3.org/2000/svg"
   xmlns:svg="http://www.w3.org/2000/svg">
  <defs
     id="defs12" />
  <sodipodi:namedview
     id="namedview10"
     pagecolor="#ffffff"
     bordercolor="#000000"
     borderopacity="0.25"
     inkscape:showpageshadow="2"
     inkscape:pageopacity="0.0"
     inkscape:pagecheckerboard="0"
     inkscape:deskcolor="#d1d1d1" />
  <!-- Exported by Scratch - http://scratch.mit.edu/ -->
  <g
     id="ID0.8670753412880003">
    <g
       id="ID0.315276509616524">
      <g
         id="ID0.7265265360474586">
        <path
           id="ID0.6895651021040976"
           fill="#00cccc"
           d="m 54.31,46.25 c -0.7,7.55 -2.97,13.28 -6.92,17.45 -2.3,2.43 -5.71,4.35 -11.39,6.39 -0.11,0.04 -0.23,0.08 -0.35,0.12 -2.72,0.87 -5.69,1.32 -8.82,1.32 -4.77,0 -9.2,-0.94 -13.17,-2.79 C 7.79,66 4.87,62.17 3.42,58.94 3.21,58.59 2.99,58.23 2.78,57.84 2.18,56.75 1.76,55.57 1.56,54.34 1.27,52.62 0.81,50.03 0.18,46.59 0.06,45.93 0,45.27 0,44.6 V 35.9 C 0,34.82 0.09,33.24 0.74,28.96 1.37,24.77 1.64,23.47 2.14,22.19 3.45,18.7 7.37,8.44 16.87,6.41 19.99,5.75 23.5,5.66 26.82,6.02 29.17,2.25 33.37,0 38.14,0 46.42,0 51,5.46 51.86,10.86 c 0.09,0.57 0.13,1.15 0.13,1.73 v 13.89 c 0,0.01 0,0.02 0,0.02 0,0.01 0,0.01 0,0.02 0,0 0,0 0,0.01 0,0.91 -0.12,1.78 -0.32,2.63 1.93,2.19 3,4.89 3.05,7.78 0.06,2.9 -0.08,6.04 -0.41,9.31 z" />
      </g>
    </g>
    <g
       id="ID0.29983394499868155">
      <path
         id="ID0.5211598752066493"
         fill="#ffffff"
         d="m 43.719,37.128 c 0.057,2.463 -0.059,5.132 -0.352,8.004 -0.471,5.044 -1.789,8.708 -3.959,10.995 -0.998,1.056 -3.372,2.258 -7.124,3.606 -1.643,0.528 -3.461,0.792 -5.454,0.792 -3.166,0 -6.011,-0.586 -8.532,-1.76 -2.757,-1.289 -4.457,-2.96 -5.102,-5.014 -0.234,-0.293 -0.499,-0.703 -0.791,-1.231 -0.295,-1.759 -0.763,-4.397 -1.408,-7.916 v -8.708 c 0,-0.821 0.205,-2.58 0.616,-5.278 0.409,-2.696 0.674,-4.191 0.792,-4.485 2.052,-5.454 4.31,-8.444 6.772,-8.973 1.113,-0.233 2.345,-0.352 3.694,-0.352 4.339,0 8.269,1.056 11.787,3.167 0.233,0.118 0.527,0.176 0.879,0.176 0.059,-0.176 0.117,-0.908 0.177,-2.199 0.058,0 0.058,-1.025 0,-3.078 -0.06,-1.408 0.079,-2.404 0.416,-2.991 0.335,-0.585 1.008,-0.88 2.014,-0.88 1.73,0 2.68,0.528 2.848,1.584 0,0.059 0,2.229 0,6.509 0,3.226 0,5.249 0,6.069 0,0.998 0,1.438 0,1.319 -0.236,0.88 -0.646,1.407 -1.232,1.583 -1.582,0.528 -2.668,0.559 -3.254,0.088 -0.294,0 -0.615,-0.088 -0.968,-0.264 -0.294,-0.82 -0.938,-1.904 -1.935,-3.254 -1.35,-1.113 -3.109,-2.081 -5.277,-2.903 -2.171,-0.82 -4.018,-1.231 -5.542,-1.231 -1.936,0 -3.489,1.495 -4.662,4.486 -1.643,4.105 -2.375,9.411 -2.199,15.921 0.117,2.874 0.205,4.692 0.265,5.453 0.292,2.405 0.938,4.457 1.935,6.157 0.704,1.174 1.788,2.142 3.255,2.903 1.465,0.763 2.902,1.173 4.31,1.231 6.979,0.294 11.053,-2.785 12.228,-9.236 0.645,-3.459 0.703,-6.362 0.176,-8.708 -0.119,-0.469 -0.061,-1.1 0.176,-1.892 0.232,-0.791 1.26,-1.275 3.078,-1.451 0.41,0 0.908,0.191 1.496,0.572 0.582,0.384 0.877,0.779 0.877,1.189 z" />
    </g>
  </g>
</svg>

<svg version="1.1" width="55" height="72" xmlns="http://www.w3.org/2000/svg" xmlns:xlink="http://www.w3.org/1999/xlink">
  <!-- Exported by Scratch - http://scratch.mit.edu/ -->
  <g id="ID0.8670753412880003">
    <g id="ID0.315276509616524">
      <g id="ID0.7265265360474586">
        <path id="ID0.6895651021040976" fill="#00CCCC" d="M 54.310 46.250 C 53.610 53.800 51.340 59.530 47.390 63.700 C 45.090 66.130 41.680 68.050 36 70.090 C 35.890 70.130 35.770 70.170 35.650 70.210 C 32.930 71.080 29.960 71.530 26.830 71.530 C 22.060 71.530 17.630 70.590 13.660 68.740 C 7.790 66 4.870 62.170 3.420 58.940 C 3.210 58.590 2.990 58.230 2.780 57.840 C 2.180 56.750 1.760 55.570 1.560 54.340 C 1.270 52.620 0.810 50.030 0.180 46.590 C 0.060 45.930 0 45.270 0 44.600 L 0 35.900 C 0 34.820 0.090 33.240 0.740 28.960 C 1.370 24.770 1.640 23.470 2.140 22.190 C 3.450 18.700 7.370 8.440 16.870 6.410 C 19.990 5.750 23.500 5.660 26.820 6.020 C 29.170 2.250 33.370 0 38.140 0 C 46.420 0 51 5.460 51.860 10.860 C 51.950 11.430 51.990 12.010 51.990 12.590 L 51.990 26.480 C 51.990 26.490 51.990 26.500 51.990 26.500 C 51.990 26.510 51.990 26.510 51.990 26.520 C 51.990 26.520 51.990 26.520 51.990 26.530 C 51.990 27.440 51.870 28.310 51.670 29.160 C 53.600 31.350 54.670 34.050 54.720 36.940 C 54.780 39.840 54.640 42.980 54.310 46.250 Z "/>
      </g>
    </g>
    <g id="ID0.29983394499868155">
      <path id="ID0.5211598752066493" fill="#FFFFFF" d="M 43.719 37.128 C 43.776 39.591 43.660 42.260 43.367 45.132 C 42.896 50.176 41.578 53.840 39.408 56.127 C 38.410 57.183 36.036 58.385 32.284 59.733 C 30.641 60.261 28.823 60.525 26.830 60.525 C 23.664 60.525 20.819 59.939 18.298 58.765 C 15.541 57.476 13.841 55.805 13.196 53.751 C 12.962 53.458 12.697 53.048 12.405 52.520 C 12.110 50.761 11.642 48.123 10.997 44.604 L 10.997 35.896 C 10.997 35.075 11.202 33.316 11.613 30.618 C 12.022 27.922 12.287 26.427 12.405 26.133 C 14.457 20.679 16.715 17.689 19.177 17.160 C 20.290 16.927 21.522 16.808 22.871 16.808 C 27.210 16.808 31.140 17.864 34.658 19.975 C 34.891 20.093 35.185 20.151 35.537 20.151 C 35.596 19.975 35.654 19.243 35.714 17.952 C 35.772 17.952 35.772 16.927 35.714 14.874 C 35.654 13.466 35.793 12.470 36.130 11.883 C 36.465 11.298 37.138 11.003 38.144 11.003 C 39.874 11.003 40.824 11.531 40.992 12.587 C 40.992 12.646 40.992 14.816 40.992 19.096 C 40.992 22.322 40.992 24.345 40.992 25.165 C 40.992 26.163 40.992 26.603 40.992 26.484 C 40.756 27.364 40.346 27.891 39.760 28.067 C 38.178 28.595 37.092 28.626 36.506 28.155 C 36.212 28.155 35.891 28.067 35.538 27.891 C 35.244 27.071 34.600 25.987 33.603 24.637 C 32.253 23.524 30.494 22.556 28.326 21.734 C 26.155 20.914 24.308 20.503 22.784 20.503 C 20.848 20.503 19.295 21.998 18.122 24.989 C 16.479 29.094 15.747 34.400 15.923 40.910 C 16.040 43.784 16.128 45.602 16.188 46.363 C 16.480 48.768 17.126 50.820 18.123 52.520 C 18.827 53.694 19.911 54.662 21.378 55.423 C 22.843 56.186 24.280 56.596 25.688 56.654 C 32.667 56.948 36.741 53.869 37.916 47.418 C 38.561 43.959 38.619 41.056 38.092 38.710 C 37.973 38.241 38.031 37.610 38.268 36.818 C 38.500 36.027 39.528 35.543 41.346 35.367 C 41.756 35.367 42.254 35.558 42.842 35.939 C 43.424 36.323 43.719 36.718 43.719 37.128 Z "/>
    </g>
  </g>
</svg>
